X:3159
T:Coire an Lochan
R:reel
C:Scottish,traditional
S:Silver Apple News,1992
D:Fiddler's Friend, Barbara Magone
Z:This abc transcription is for personal use only, 
Z:provided this notice remains attached.
Z:Paul Stewart Cranford 
L:1/8
Q:300
M:C
K:Ador
z|A2 ed e2A2|edea gedc|BABd G2 GA|BcdB edBG|!
A<Aed e2 A2|edeg a2 ag|efge dcBd|e2 dB AAA:|!
|:B|c2 gf g2 c2|agea gedc|B2 AB GABc|dBGB gdBG|!
c<cgf g2 c2|cdeg a2 ag|efge dcBd|e2 dB AAA:|!
